!! 00048] TT[KA
!! NN
!!!OTL: Tongqian ge
!!!ARE: Asia, China,Hunan, Yiyang
!! Ethnic Group: Han
!! I, 534
!!!SCT: C0124
!!!YEM: Copyright 1995, estate of Helmut Schaffrath.
**kern
*ICvox
*Ivox
*M2/4
*k[b-e-]
*B-:
{4bb-
8gg
8bb-
=1
8fff
4ddd
8gg
=2
8ddd
16ddd
16fff
8bb-
16bb-
16gg
=3
4gg
4r}
=4
{8bb-
8gg
8gg
8bb-
=5
8dd
8ff
4dd
=6
8bb-
16gg
16bb-
8ddd
16bb-
16gg
=7
4gg
4r}
=8
{8bb-
8gg
8gg
8bb-
=9
8dd
8ff
4dd
=10
8bb-
8bb-
8gg
8bb-
=11
8ddd
8fff
4ddd}
=12
{8bb-
16bb-
16gg
8gg
8bb-
=13
8gg
16gg
16bb-
4dd
=14
8bb-
16gg
16bb-
8ddd
16bb-
16gg
=15
4gg
4r}
=16
{8.bb-
16bb-
8ddd
8bb-
=17
8fff
4ddd
8gg
=18
8ddd
16gg
16gg
8bb-
16bb-
16gg
=19
4gg
4r}
=20
{8gg
8bb-
8gg
8ff
=21
8gg
8bb-
8gg
8ff
=22
8gg
8bb-
8gg
8ff}
=23
{8.gg
16bb-
16gg
16bb-
16gg
16ff
=24
4dd
4ff
=25
8.gg
16bb-
16gg
16bb-
16gg
16ff
=26
4dd
4ff}
=27
{16ddd
16fff
8bb-
16gg
16bb-
8ddd
=28
4bb-
4bb-
=29
8bb-
16bb-
16gg
8bb-
8ddd
=30
4gg
4ff}
=31
{4bb-
8gg
8bb-
=32
8fff
4ddd
8gg
=33
8ddd
16ddd
16fff
8bb-
16bb-
16gg
=34
4gg
4r}
=35
{8bb-
8gg
8gg
8bb-
=36
8dd
8ff
4dd
=37
8bb-
16gg
16bb-
8ddd
16bb-
16gg
=38
4gg
4r}
=39
{8bb-
8gg
8gg
8bb-
=40
8dd
8ff
4dd
=41
8bb-
8bb-
8gg
8bb-
=42
8ddd
8fff
4ddd}
=43
{8bb-
16bb-
16gg
8gg
8bb-
=44
8gg
16gg
16bb-
4dd
=45
8bb-
16gg
16bb-
8ddd
16bb-
16gg
=46
4gg
4r}
=47
{8.bb-
16bb-
8ddd
8bb-
=48
8fff
4ddd
8gg
=49
8ddd
16gg
16gg
8bb-
16bb-
16gg
=50
4gg
4r}
=51
{8gg
8bb-
8gg
8ff
=52
8gg
8bb-
8gg
8ff
=53
8gg
8bb-
8gg
8ff}
=54
{8.gg
16bb-
16gg
16bb-
16gg
16ff
=55
4dd
4ff
=56
8.gg
16bb-
16gg
16bb-
16gg
16ff
=57
4dd
4ff}
=58
{16ddd
16fff
8bb-
16gg
16bb-
8ddd
=59
4bb-
4bb-}
=60
{8fff
4ddd
8fff
=61
4.bb-
8ff
=62
2gg}
==
!!!AGN: Xiaodiao; Tanzform; Hua gu
!! Typisch ist: La-Do-Mi-So (6-1-3-5). In tiefer Tonlage werden die
!!    Toene bisweilen leicht erhoeht gesungen.
!!    Die letzten beiden Takte werden in der 4. Strophe durch folgende er-
!!    setzt: +5_+3__+5_  +1__.5_  6___ //
!!    Vor- und Zwischenspiele ( 0__) weggelassen. Vereinzelt Verzierungen.
!!!ONB: ESAC (Essen Associative Code) Database: CHINA_069
!!!AMT: simple duple
!!!AIN: vox
!!!EED: Helmut Schaffrath
!!!EEV: 1.0
*-
